X:4
T:Wake Ev'ry Breath
C:William Billings
M:3/2
L:1/2
Q:1/2=100
K:Bb
%%MIDI program 1 41 % Viola
%%MIDI program 2 41 % Viola
%%MIDI program 3 41 % Viola
%%MIDI program 4 41 % Viola
V:1
B|(d/>e/d)c|(B/>c/d)e|(f/>e/d)c|B2
B|B2F|(G/>A/B)G|(FB)F|B2
d|f2f|(d/>c/B)B|(d/>e/f)f|f2
B|(d/>e/f)f|(gf)(3(B/c/d/)|(cB)(3(A/B/c/)|(d/>c/B)
d|(BF)F|(B/>c/d)B|(AB)(3(c/B/A/)|(B/>c/d)
d|(f/e/d/c/)(B/A/)|(B/c/d/e/)(f/e/)|(d/f/B/d/)(3(c/B/A/)|B2
V:Ground clef=bass
B,|B,2F,|(G,/>A,/B,)G,|(F,B,)F,|B,,2

